svgs/1F937-1F3FE-200D-2640-FE0F.svg

<svg xmlns="http://www.w3.org/2000/svg" xmlns:xlink="http://www.w3.org/1999/xlink" preserveAspectRatio="none" viewBox="0 0 72 72"><defs><path id="a" fill="#47352D" d="M95.7 71.75l-1.5-20.1-63.95 6.3L33 79.35q3.55 23.6 7.75 34.45 2.85 7.35 5.55 9.35 3.45 2.55 8.15-1.75l28.3-3.1q5.6 3.45 9.3.15 3.4-3 3.95-10.35 1-13.55-.3-36.35z"/><path id="b" fill="#7E57C2" d="M77.85 86.25q-8.1-.2-13.85-.3V128h25.05v-7.55q5.8 7.55 11.8 7.55h2.95v-11.15q0-12.7-7.45-21.6-7.5-9-18.5-9z"/><path id="c" fill="#AD6F43" d="M102.5 73.1q1.75 3.1 5.15 2.6 2.65-.5 4.65-1.5 2-1.05 4.95-3.35 6.95-5.95 9.9-11.35.75-1.4.05-2.45-.75-1-1.65 0-2 2.7-5.55 5.85-3.25 2.8-3.4 2.5-.45-1.6-2.3-1.35-1.3.15-2.9 1.2-3.6 2.3-7.35 3.7-3.25 1.1-1.55 4.15z"/><path id="d" fill="#AD6F43" d="M109.65 71.6l-5.55-2.65q-.5.1-1.05.5-1.15.85-1.55 2.4-.25.8-.15 3.55v1.75l5.55 1.95 4.75-1.15q.25-.9.7-2 .95-2.2 2.15-3.1l-4.85-1.25z"/><path id="e" fill="#7E57C2" d="M56.25 42.2q-.25.2-.35.5l-3 23.7q-.35 2.2 1.1 3.9 1.5 1.7 3.75 1.7 2.75 0 4.65-1.95 1.95-1.95 1.85-4.7l-.1-22.2q0-.3-.25-.55-.2-.2-.5-.25L56.8 42q-.3-.05-.55.2z"/><path id="f" fill="#020202" fill-opacity=".537" d="M1.85 0L0 13.55l2.4 2.8 1.85-13.6L1.85 0z"/><path id="g" fill="#7E57C2" d="M63.95 85.95q-11.45.3-13.85.3-10.95 0-18.5 9-7.45 8.9-7.45 21.6V128h3q5.95 0 11.8-7.55V128h25V85.95z"/><path id="h" fill="#47352D" d="M48.9 40.9q4.75-5.25 4.1-11.95-.65-6.7-6.35-10.9-5.75-4.2-13.2-3.5-7.45.75-12.25 6T17.05 32.5q.65 6.7 6.4 10.9 5.7 4.2 13.15 3.5 7.45-.75 12.3-6z"/><path id="i" fill="#7A4C32" d="M36.25 57.45q2 0 3.45-1.45 1.4-1.45 1.4-3.5v-4.2h-9.75v4.2q0 2.05 1.4 3.5 1.45 1.45 3.5 1.45z"/><path id="j" fill="#AD6F43" d="M84.8 88.15q7.2-9.2 4.4-23.4-3.4-17.35-10.05-25-7.9-8.95-21.5-6.3-13.65 2.7-17.5 14Q36.9 57 40.3 74.4q2.85 14.2 13 19.95 7.95 4.5 16.9 2.75t14.6-8.95z"/><path id="k" fill="#47352D" d="M82.9 59.35q4.3 1.95 7.5 2.5L85.8 38.6q-2.65-3.5-7.6-6.5-9.9-6.1-21.3-3.85Q45.45 30.5 38.6 39.7q-3.45 4.6-4.6 8.75l4.65 23.65Q49.55 67.95 59.1 59q5.5-5.15 9.2-10.45.15-.2.4-.2t.4.2q5.25 6.95 13.8 10.8z"/><path id="l" fill="#7A4C32" d="M70.1 77.25q-.2-.25-.55-.05-1.85.9-3.4 1.2-1.45.3-3.55.15-.4-.05-.5.25-.1.3.1.55.5.6 1.6 1 1.45.5 2.8.25 1.35-.25 2.5-1.3.85-.8 1.1-1.55.1-.3-.1-.5z"/><path id="m" fill="#513F35" d="M71 87.6q-.2-1.1-1.2-1.55-.9-.5-2.15-.25t-1.9 1.05q-.7.8-.5 1.9.3 1.8 3.2 1.15 2.85-.55 2.55-2.3z"/><path id="n" fill="#444" d="M56.55 72.1q-.3-1.7-1.55-2.7-1.2-1-2.65-.75-1.4.3-2.15 1.7t-.4 3.1q.35 1.7 1.55 2.7 1.25 1 2.65.7 1.4-.25 2.15-1.65t.4-3.1z"/><path id="o" fill="#444" d="M73.7 65.7q-.75 1.4-.4 3.1.35 1.7 1.55 2.7 1.25 1 2.65.7 1.4-.25 2.15-1.65t.45-3.1q-.35-1.7-1.55-2.7-1.25-1-2.65-.75-1.4.3-2.2 1.7z"/><path id="p" fill="#AD6F43" d="M25.45 73.1q1.7-3.05-1.55-4.15-3.75-1.4-7.35-3.7-1.6-1.05-2.9-1.2-1.85-.25-2.3 1.35-.15.3-3.4-2.5-3.55-3.15-5.55-5.85-.9-1-1.6 0-.75 1 0 2.45 2.95 5.4 9.95 11.35 2.85 2.3 4.9 3.35 1.95.95 4.65 1.5 3.45.5 5.15-2.6z"/><path id="q" fill="#AD6F43" d="M24.9 69.45l-1.05-.5-5.5 2.65-4.9 1.25q1.95 1.45 2.85 5.1l4.8 1.15 5.5-1.95V75.4q.1-2.75-.15-3.55-.4-1.55-1.55-2.4z"/><path id="r" fill="#7E57C2" d="M16 42.7q-.05-.3-.3-.5-.25-.25-.55-.2l-6.65.35q-.3.05-.5.25-.2.25-.2.55l-.2 22.2q0 2.75 1.9 4.7Q11.4 72 14.15 72q2.25 0 3.75-1.7t1.15-3.95L16 42.7z"/><path id="s" fill="#020202" fill-opacity=".537" d="M18.4 61.7l1.35-1.6-1.05-7.6-1.35 1.55 1.05 7.65z"/></defs><use transform="scale(.5625)" xlink:href="#a"/><use transform="translate(-.05) scale(.5625)" xlink:href="#b"/><use transform="matrix(.56245 0 0 .56245 -.05 0)" xlink:href="#c"/><use transform="matrix(.56245 0 0 .56245 -.05 0)" xlink:href="#d"/><use xlink:href="#e"/><use transform="translate(52.15 52.5) scale(.5625)" xlink:href="#f"/><use transform="translate(.05) scale(.5625)" xlink:href="#g"/><use xlink:href="#h"/><use xlink:href="#i"/><use transform="scale(.5625)" xlink:href="#j"/><use transform="scale(.5625)" xlink:href="#k"/><use transform="scale(.5625)" xlink:href="#l"/><use transform="scale(.5625)" xlink:href="#m"/><use transform="scale(.5625)" xlink:href="#n"/><use transform="scale(.5625)" xlink:href="#o"/><use transform="rotate(.11) scale(.56244)" xlink:href="#p"/><use transform="rotate(.11) scale(.56244)" xlink:href="#q"/><use xlink:href="#r"/><use xlink:href="#s"/></svg>

<svg xmlns="http://www.w3.org/2000/svg" version="1.1" xmlns:xlink="http://www.w3.org/1999/xlink" preserveAspectRatio="none" x="0px" y="0px" width="72px" height="72px" viewBox="0 0 72 72">
<defs>
<g id="Layer0_0_FILL">
<path fill="#47352D" stroke="none" d="
M 95.7 71.75
L 94.2 51.65 30.25 57.95 33 79.35
Q 36.55 102.95 40.75 113.8 43.6 121.15 46.3 123.15 49.75 125.7 54.45 121.4
L 82.75 118.3
Q 88.35 121.75 92.05 118.45 95.45 115.45 96 108.1 97 94.55 95.7 71.75 Z"/>
</g>

<g id="Layer0_1_MEMBER_0_FILL">
<path fill="#7E57C2" stroke="none" d="
M 77.85 86.25
Q 69.75 86.05 64 85.95
L 64 128 89.05 128 89.05 120.45
Q 94.85 128 100.85 128
L 103.8 128 103.8 116.85
Q 103.8 104.15 96.35 95.25 88.85 86.25 77.85 86.25 Z"/>
</g>

<g id="Layer0_1_MEMBER_1_MEMBER_0_MEMBER_0_FILL">
<path fill="#AD6F43" stroke="none" d="
M 102.5 73.1
Q 104.25 76.2 107.65 75.7 110.3 75.2 112.3 74.2 114.3 73.15 117.25 70.85 124.2 64.9 127.15 59.5 127.9 58.1 127.2 57.05 126.45 56.05 125.55 57.05 123.55 59.75 120 62.9 116.75 65.7 116.6 65.4 116.15 63.8 114.3 64.05 113 64.2 111.4 65.25 107.8 67.55 104.05 68.95 100.8 70.05 102.5 73.1 Z"/>
</g>

<g id="Layer0_1_MEMBER_1_MEMBER_0_MEMBER_1_FILL">
<path fill="#AD6F43" stroke="none" d="
M 109.65 71.6
L 104.1 68.95
Q 103.6 69.05 103.05 69.45 101.9 70.3 101.5 71.85 101.25 72.65 101.35 75.4
L 101.35 77.15 106.9 79.1 111.65 77.95
Q 111.9 77.05 112.35 75.95 113.3 73.75 114.5 72.85
L 109.65 71.6 Z"/>
</g>

<g id="Layer0_1_MEMBER_1_MEMBER_1_MEMBER_0_MEMBER_0_FILL">
<path fill="#7E57C2" stroke="none" d="
M 56.25 42.2
Q 56 42.4 55.9 42.7
L 52.9 66.4
Q 52.55 68.6 54 70.3 55.5 72 57.75 72 60.5 72 62.4 70.05 64.35 68.1 64.25 65.35
L 64.15 43.15
Q 64.15 42.85 63.9 42.6 63.7 42.4 63.4 42.35
L 56.8 42
Q 56.5 41.95 56.25 42.2 Z"/>
</g>

<g id="Layer0_1_MEMBER_2_FILL">
<path fill="#020202" fill-opacity="0.5372549019607843" stroke="none" d="
M 1.85 0
L 0 13.55 2.4 16.35 4.25 2.75 1.85 0 Z"/>
</g>

<g id="Layer0_2_FILL">
<path fill="#7E57C2" stroke="none" d="
M 63.95 85.95
Q 52.5 86.25 50.1 86.25 39.15 86.25 31.6 95.25 24.15 104.15 24.15 116.85
L 24.15 128 27.15 128
Q 33.1 128 38.95 120.45
L 38.95 128 63.95 128 63.95 85.95 Z"/>
</g>

<g id="Layer0_3_FILL">
<path fill="#47352D" stroke="none" d="
M 48.9 40.9
Q 53.65 35.65 53 28.95 52.35 22.25 46.65 18.05 40.9 13.85 33.45 14.55 26 15.3 21.2 20.55 16.4 25.8 17.05 32.5 17.7 39.2 23.45 43.4 29.15 47.6 36.6 46.9 44.05 46.15 48.9 40.9 Z"/>
</g>

<g id="Layer0_4_FILL">
<path fill="#7A4C32" stroke="none" d="
M 36.25 57.45
Q 38.25 57.45 39.7 56 41.1 54.55 41.1 52.5
L 41.1 48.3 31.35 48.3 31.35 52.5
Q 31.35 54.55 32.75 56 34.2 57.45 36.25 57.45 Z"/>
</g>

<g id="Layer0_5_MEMBER_0_FILL">
<path fill="#AD6F43" stroke="none" d="
M 84.8 88.15
Q 92 78.95 89.2 64.75 85.8 47.4 79.15 39.75 71.25 30.8 57.65 33.45 44 36.15 40.15 47.45 36.9 57 40.3 74.4 43.15 88.6 53.3 94.35 61.25 98.85 70.2 97.1 79.15 95.35 84.8 88.15 Z"/>
</g>

<g id="Layer0_5_MEMBER_1_FILL">
<path fill="#47352D" stroke="none" d="
M 82.9 59.35
Q 87.2 61.3 90.4 61.85
L 85.8 38.6
Q 83.15 35.1 78.2 32.1 68.3 26 56.9 28.25 45.45 30.5 38.6 39.7 35.15 44.3 34 48.45
L 38.65 72.1
Q 49.55 67.95 59.1 59 64.6 53.85 68.3 48.55 68.45 48.35 68.7 48.35 68.95 48.35 69.1 48.55 74.35 55.5 82.9 59.35 Z"/>
</g>

<g id="Layer0_5_MEMBER_2_FILL">
<path fill="#7A4C32" stroke="none" d="
M 70.1 77.25
Q 69.9 77 69.55 77.2 67.7 78.1 66.15 78.4 64.7 78.7 62.6 78.55 62.2 78.5 62.1 78.8 62 79.1 62.2 79.35 62.7 79.95 63.8 80.35 65.25 80.85 66.6 80.6 67.95 80.35 69.1 79.3 69.95 78.5 70.2 77.75 70.3 77.45 70.1 77.25 Z"/>
</g>

<g id="Layer0_5_MEMBER_3_FILL">
<path fill="#513F35" stroke="none" d="
M 71 87.6
Q 70.8 86.5 69.8 86.05 68.9 85.55 67.65 85.8 66.4 86.05 65.75 86.85 65.05 87.65 65.25 88.75 65.55 90.55 68.45 89.9 71.3 89.35 71 87.6 Z"/>
</g>

<g id="Layer0_5_MEMBER_4_FILL">
<path fill="#444444" stroke="none" d="
M 56.55 72.1
Q 56.25 70.4 55 69.4 53.8 68.4 52.35 68.65 50.95 68.95 50.2 70.35 49.45 71.75 49.8 73.45 50.15 75.15 51.35 76.15 52.6 77.15 54 76.85 55.4 76.6 56.15 75.2 56.9 73.8 56.55 72.1 Z"/>
</g>

<g id="Layer0_5_MEMBER_5_FILL">
<path fill="#444444" stroke="none" d="
M 73.7 65.7
Q 72.95 67.1 73.3 68.8 73.65 70.5 74.85 71.5 76.1 72.5 77.5 72.2 78.9 71.95 79.65 70.55 80.4 69.15 80.1 67.45 79.75 65.75 78.55 64.75 77.3 63.75 75.9 64 74.5 64.3 73.7 65.7 Z"/>
</g>

<g id="Layer0_6_MEMBER_0_MEMBER_0_FILL">
<path fill="#AD6F43" stroke="none" d="
M 25.45 73.1
Q 27.15 70.05 23.9 68.95 20.15 67.55 16.55 65.25 14.95 64.2 13.65 64.05 11.8 63.8 11.35 65.4 11.2 65.7 7.95 62.9 4.4 59.75 2.4 57.05 1.5 56.05 0.8 57.05 0.05 58.05 0.8 59.5 3.75 64.9 10.75 70.85 13.6 73.15 15.65 74.2 17.6 75.15 20.3 75.7 23.75 76.2 25.45 73.1 Z"/>
</g>

<g id="Layer0_6_MEMBER_0_MEMBER_1_FILL">
<path fill="#AD6F43" stroke="none" d="
M 24.9 69.45
L 23.85 68.95 18.35 71.6 13.45 72.85
Q 15.4 74.3 16.3 77.95
L 21.1 79.1 26.6 77.15 26.6 75.4
Q 26.7 72.65 26.45 71.85 26.05 70.3 24.9 69.45 Z"/>
</g>

<g id="Layer0_6_MEMBER_1_MEMBER_0_MEMBER_0_FILL">
<path fill="#7E57C2" stroke="none" d="
M 16 42.7
Q 15.95 42.4 15.7 42.2 15.45 41.95 15.15 42
L 8.5 42.35
Q 8.2 42.4 8 42.6 7.8 42.85 7.8 43.15
L 7.6 65.35
Q 7.6 68.1 9.5 70.05 11.4 72 14.15 72 16.4 72 17.9 70.3 19.4 68.6 19.05 66.35
L 16 42.7 Z"/>
</g>

<g id="Layer0_7_FILL">
<path fill="#020202" fill-opacity="0.5372549019607843" stroke="none" d="
M 18.4 61.7
L 19.75 60.1 18.7 52.5 17.35 54.05 18.4 61.7 Z"/>
</g>
</defs>

<g id="Layer_1">
<g transform="matrix( 0.5625, 0, 0, 0.5625, 0,0) ">
<use xlink:href="#Layer0_0_FILL"/>
</g>

<g transform="matrix( 0.5625, 0, 0, 0.5625, -0.05,0) ">
<use xlink:href="#Layer0_1_MEMBER_0_FILL"/>
</g>

<g transform="matrix( 0.5624542236328125, 0, 0, 0.5624542236328125, -0.05,0) ">
<use xlink:href="#Layer0_1_MEMBER_1_MEMBER_0_MEMBER_0_FILL"/>
</g>

<g transform="matrix( 0.5624542236328125, 0, 0, 0.5624542236328125, -0.05,0) ">
<use xlink:href="#Layer0_1_MEMBER_1_MEMBER_0_MEMBER_1_FILL"/>
</g>

<g transform="matrix( 1, 0, 0, 1, 0,0) ">
<use xlink:href="#Layer0_1_MEMBER_1_MEMBER_1_MEMBER_0_MEMBER_0_FILL"/>
</g>

<g transform="matrix( 0.5625, 0, 0, 0.5625, 52.15,52.5) ">
<use xlink:href="#Layer0_1_MEMBER_2_FILL"/>
</g>

<g transform="matrix( 0.5625, 0, 0, 0.5625, 0.05,0) ">
<use xlink:href="#Layer0_2_FILL"/>
</g>

<g transform="matrix( 1, 0, 0, 1, 0,0) ">
<use xlink:href="#Layer0_3_FILL"/>
</g>

<g transform="matrix( 1, 0, 0, 1, 0,0) ">
<use xlink:href="#Layer0_4_FILL"/>
</g>

<g transform="matrix( 0.5625, 0, 0, 0.5625, 0,0) ">
<use xlink:href="#Layer0_5_MEMBER_0_FILL"/>
</g>

<g transform="matrix( 0.5625, 0, 0, 0.5625, 0,0) ">
<use xlink:href="#Layer0_5_MEMBER_1_FILL"/>
</g>

<g transform="matrix( 0.5625, 0, 0, 0.5625, 0,0) ">
<use xlink:href="#Layer0_5_MEMBER_2_FILL"/>
</g>

<g transform="matrix( 0.5625, 0, 0, 0.5625, 0,0) ">
<use xlink:href="#Layer0_5_MEMBER_3_FILL"/>
</g>

<g transform="matrix( 0.5625, 0, 0, 0.5625, 0,0) ">
<use xlink:href="#Layer0_5_MEMBER_4_FILL"/>
</g>

<g transform="matrix( 0.5625, 0, 0, 0.5625, 0,0) ">
<use xlink:href="#Layer0_5_MEMBER_5_FILL"/>
</g>

<g transform="matrix( 0.56243896484375, 0, 0, 0.56243896484375, 0,0) ">
<use xlink:href="#Layer0_6_MEMBER_0_MEMBER_0_FILL"/>
</g>

<g transform="matrix( 0.56243896484375, 0, 0, 0.56243896484375, 0,0) ">
<use xlink:href="#Layer0_6_MEMBER_0_MEMBER_1_FILL"/>
</g>

<g transform="matrix( 1, 0, 0, 1, 0,0) ">
<use xlink:href="#Layer0_6_MEMBER_1_MEMBER_0_MEMBER_0_FILL"/>
</g>

<g transform="matrix( 1, 0, 0, 1, 0,0) ">
<use xlink:href="#Layer0_7_FILL"/>
</g>
</g>
</svg>
